apps/128/internet-web-browser.svg

<?xml version="1.0" encoding="UTF-8" standalone="no"?>
<svg
   xmlns:dc="http://purl.org/dc/elements/1.1/"
   xmlns:cc="http://creativecommons.org/ns#"
   xmlns:rdf="http://www.w3.org/1999/02/22-rdf-syntax-ns#"
   xmlns:svg="http://www.w3.org/2000/svg"
   xmlns="http://www.w3.org/2000/svg"
   xmlns:xlink="http://www.w3.org/1999/xlink"
   version="1.1"
   width="128"
   height="128"
   id="svg5157">
  <defs
     id="defs5159">
    <linearGradient
       id="linearGradient3820-7-2-8-6">
      <stop
         id="stop3822-2-6-5-0"
         style="stop-color:#3d3d3d;stop-opacity:1"
         offset="0" />
      <stop
         id="stop3864-8-7-4-1"
         style="stop-color:#686868;stop-opacity:0.49803922"
         offset="0.5" />
      <stop
         id="stop3824-1-2-6-7"
         style="stop-color:#686868;stop-opacity:0"
         offset="1" />
    </linearGradient>
    <linearGradient
       id="linearGradient4168">
      <stop
         id="stop4170"
         style="stop-color:#f8b17e;stop-opacity:1"
         offset="0" />
      <stop
         id="stop4172"
         style="stop-color:#e35d4f;stop-opacity:1"
         offset="0.23208089" />
      <stop
         id="stop4174"
         style="stop-color:#c6262e;stop-opacity:1"
         offset="0.5908742" />
      <stop
         id="stop4176"
         style="stop-color:#690b54;stop-opacity:1"
         offset="1" />
    </linearGradient>
    <linearGradient
       id="linearGradient3957">
      <stop
         id="stop3959"
         style="stop-color:#ffffff;stop-opacity:1"
         offset="0" />
      <stop
         id="stop3961"
         style="stop-color:#c1c1c1;stop-opacity:1"
         offset="1" />
    </linearGradient>
    <linearGradient
       id="linearGradient2867-449-88-871-390-598-476-591-434-148-57-177-3-8">
      <stop
         id="stop3750-8-9"
         style="stop-color:#90dbec;stop-opacity:1"
         offset="0" />
      <stop
         id="stop3752-3-2"
         style="stop-color:#42baea;stop-opacity:1"
         offset="0.26238" />
      <stop
         id="stop3754-7-2"
         style="stop-color:#3689e6;stop-opacity:1"
         offset="0.704952" />
      <stop
         id="stop3756-9-3"
         style="stop-color:#2b63a0;stop-opacity:1"
         offset="1" />
    </linearGradient>
    <linearGradient
       id="linearGradient3957-2">
      <stop
         id="stop3959-62"
         style="stop-color:#ffffff;stop-opacity:1"
         offset="0" />
      <stop
         id="stop3961-5"
         style="stop-color:#c1c1c1;stop-opacity:1"
         offset="1" />
    </linearGradient>
    <linearGradient
       id="linearGradient4806">
      <stop
         offset="0"
         style="stop-color:#ffffff;stop-opacity:1"
         id="stop4808" />
      <stop
         offset="0.42447853"
         style="stop-color:#ffffff;stop-opacity:0.23529412"
         id="stop4810" />
      <stop
         offset="0.82089913"
         style="stop-color:#ffffff;stop-opacity:0.15686275"
         id="stop4812" />
      <stop
         offset="1"
         style="stop-color:#ffffff;stop-opacity:0.39215687"
         id="stop4814" />
    </linearGradient>
    <linearGradient
       xlink:href="#linearGradient4806"
       id="linearGradient3118"
       gradientUnits="userSpaceOnUse"
       gradientTransform="matrix(4.16388,0,0,4.16388,-236.03265,-50.036246)"
       x1="71.204407"
       y1="15.369057"
       x2="71.204407"
       y2="40.495617" />
    <radialGradient
       xlink:href="#linearGradient3820-7-2-8-6"
       id="radialGradient3163"
       gradientUnits="userSpaceOnUse"
       gradientTransform="matrix(0.6869404,0,0,0.21461693,-4.02174,68.573331)"
       cx="99.157013"
       cy="186.17059"
       fx="99.157013"
       fy="186.17059"
       r="62.769119" />
    <linearGradient
       xlink:href="#linearGradient3957"
       id="linearGradient3184"
       gradientUnits="userSpaceOnUse"
       gradientTransform="matrix(1.7499999,0,0,1.7499999,22.50001,23.998191)"
       x1="24"
       y1="22"
       x2="24"
       y2="26" />
    <linearGradient
       xlink:href="#linearGradient3957-2"
       id="linearGradient3190"
       gradientUnits="userSpaceOnUse"
       gradientTransform="matrix(2.5365854,0,0,2.5365854,3.621948,5.120133)"
       x1="21.013996"
       y1="25.433903"
       x2="22.805599"
       y2="27.343702" />
    <linearGradient
       xlink:href="#linearGradient4168"
       id="linearGradient3193"
       gradientUnits="userSpaceOnUse"
       gradientTransform="matrix(2.5365854,0,0,2.5365854,3.621948,5.120133)"
       x1="27.92535"
       y1="15.149301"
       x2="33.447899"
       y2="22.986004" />
    <radialGradient
       xlink:href="#linearGradient2867-449-88-871-390-598-476-591-434-148-57-177-3-8"
       id="radialGradient3197"
       gradientUnits="userSpaceOnUse"
       gradientTransform="matrix(0,6.3385076,-6.7053845,-1.7252442e-7,121.15923,-25.776663)"
       cx="3.9722471"
       cy="8.4497671"
       fx="3.9722471"
       fy="8.4497671"
       r="19.99999" />
  </defs>
  <metadata
     id="metadata5162">
    <rdf:RDF>
      <cc:Work
         rdf:about="">
        <dc:format>image/svg+xml</dc:format>
        <dc:type
           rdf:resource="http://purl.org/dc/dcmitype/StillImage" />
        <dc:title />
      </cc:Work>
    </rdf:RDF>
  </metadata>
  <path
     style="fill:url(#radialGradient3163);fill-opacity:1;stroke:none"
     id="path3818-0-5-0"
     d="m 107.21186,108.52868 a 43.118644,13.471312 0 1 1 -86.237286,0 43.118644,13.471312 0 1 1 86.237286,0 z" />
  <path
     d="m 64.500003,13.998178 c -28.691806,0 -52.000007,23.308191 -52.000007,52 0,28.691809 23.308201,52.000012 52.000007,52.000002 28.691795,0 52.000017,-23.308193 51.999997,-52.000002 0,-28.691809 -23.308202,-52 -51.999997,-52 z"
     id="path2555"
     style="color:#000000;fill:url(#radialGradient3197);fill-opacity:1;fill-rule:nonzero;stroke:none;stroke-width:1;marker:none;visibility:visible;display:inline;overflow:visible;enable-background:accumulate" />
  <path
     style="opacity:0.05000000000000000;color:#000000;fill:#000000;fill-opacity:1;fill-rule:nonzero;stroke:none;stroke-width:1;marker:none;visibility:visible;display:inline;overflow:visible;enable-background:accumulate"
     id="path3217"
     d="m 96.65625,34 a 0.72484439,0.72484439 0 0 0 -0.3125,0.15625 L 60.5,62.84375 a 0.72484439,0.72484439 0 0 0 -0.125,0.125 l -28.71875,35.875 a 0.72484439,0.72484439 0 0 0 1,1 L 68.53125,71.125 A 0.72484439,0.72484439 0 0 0 68.65625,71 L 97.34375,35.15625 A 0.72484439,0.72484439 0 0 0 96.65625,34 z" />
  <path
     style="opacity:0.15;color:#000000;fill:#000000;fill-opacity:1;fill-rule:nonzero;stroke:none;stroke-width:1;marker:none;visibility:visible;display:inline;overflow:visible;enable-background:accumulate"
     d="M 96.785456,34.712682 60.925287,63.411835 32.226134,99.272 68.086303,70.572852 96.785456,34.712682 z"
     id="path3022-3" />
  <path
     d="M 60.912722,62.410909 68.08727,69.585457 96.785456,33.712721 z"
     id="path3022"
     style="fill:url(#linearGradient3193);fill-opacity:1;stroke:none" />
  <path
     d="M 60.912722,62.410909 68.08727,69.585457 32.214536,98.283643 z"
     id="path3022-9"
     style="color:#000000;fill:url(#linearGradient3190);fill-opacity:1;fill-rule:nonzero;stroke:none;stroke-width:0.75;marker:none;visibility:visible;display:inline;overflow:visible;enable-background:accumulate" />
  <path
     d="m 62.771417,67.854601 a 2.5365854,2.5365854 0 0 1 1.722108,-4.392996 l 0.0065,2.536578 z"
     id="path3953"
     style="opacity:0.05;color:#000000;fill:#ffffff;fill-opacity:1;fill-rule:nonzero;stroke:none;stroke-width:1;marker:none;visibility:visible;display:inline;overflow:visible;enable-background:accumulate" />
  <path
     d="m 68.999998,66.998 a 4.5,4.5 0 0 1 -9,0 4.5,4.5 0 1 1 9,0 z"
     id="path3955-6-6"
     style="opacity:0.05;color:#000000;fill:#000000;fill-opacity:1;fill-rule:nonzero;stroke:none;stroke-width:1;marker:none;visibility:visible;display:inline;overflow:visible;enable-background:accumulate" />
  <path
     d="m 67.999998,66.998 a 3.5,3.5 0 0 1 -7,0 3.5,3.5 0 1 1 7,0 z"
     id="path3955-6"
     style="opacity:0.15;color:#000000;fill:#000000;fill-opacity:1;fill-rule:nonzero;stroke:none;stroke-width:1;marker:none;visibility:visible;display:inline;overflow:visible;enable-background:accumulate" />
  <path
     d="m 67.999998,65.998179 a 3.5,3.5 0 0 1 -7,0 3.5,3.5 0 1 1 7,0 z"
     id="path3955"
     style="color:#000000;fill:url(#linearGradient3184);fill-opacity:1;fill-rule:nonzero;stroke:none;stroke-width:1;marker:none;visibility:visible;display:inline;overflow:visible;enable-background:accumulate" />
  <path
     style="opacity:0.5;color:#000000;fill:#000000;fill-opacity:0;fill-rule:nonzero;stroke:#00537d;stroke-width:1;stroke-linecap:round;stroke-linejoin:round;stroke-miterlimit:4;stroke-opacity:1;stroke-dasharray:none;stroke-dashoffset:0;marker:none;visibility:visible;display:inline;overflow:visible;enable-background:accumulate"
     id="path2555-7-1"
     d="m 64.5,13.998179 c -28.691806,0 -52.000001,23.308189 -52.000001,51.999997 0,28.691808 23.308195,52.000014 52.000001,52.000004 28.691802,0 52.00002,-23.308196 52,-52.000004 0,-28.691808 -23.308198,-51.999997 -52,-51.999997 z" />
  <path
     style="opacity:0.5;color:#000000;fill:none;stroke:url(#linearGradient3118);stroke-width:1;stroke-linecap:round;stroke-linejoin:round;stroke-miterlimit:4;stroke-opacity:1;stroke-dasharray:none;stroke-dashoffset:0;marker:none;visibility:visible;display:inline;overflow:visible;enable-background:accumulate"
     id="path3019"
     d="m 115.5,65.998181 c 0,28.166516 -22.833502,50.999989 -51.000026,50.999989 -28.166487,0 -50.999973,-22.833473 -50.999973,-50.999989 0,-28.166517 22.833486,-50.999991 50.999973,-50.999991 28.166524,0 51.000026,22.833474 51.000026,50.999991 z" />
</svg>

<svg xmlns="http://www.w3.org/2000/svg" xmlns:xlink="http://www.w3.org/1999/xlink" viewBox="0 0 128 128"><defs><linearGradient id="b"><stop offset="0" stop-color="#3d3d3d"/><stop offset=".5" stop-color="#686868" stop-opacity=".498"/><stop offset="1" stop-color="#686868" stop-opacity="0"/></linearGradient><linearGradient id="e"><stop offset="0" stop-color="#f8b17e"/><stop offset=".232" stop-color="#e35d4f"/><stop offset=".591" stop-color="#c6262e"/><stop offset="1" stop-color="#690b54"/></linearGradient><linearGradient id="c"><stop offset="0" stop-color="#fff"/><stop offset="1" stop-color="#c1c1c1"/></linearGradient><linearGradient id="f"><stop offset="0" stop-color="#90dbec"/><stop offset=".262" stop-color="#42baea"/><stop offset=".705" stop-color="#3689e6"/><stop offset="1" stop-color="#2b63a0"/></linearGradient><linearGradient id="d"><stop offset="0" stop-color="#fff"/><stop offset="1" stop-color="#c1c1c1"/></linearGradient><linearGradient id="a"><stop offset="0" stop-color="#fff"/><stop offset=".424" stop-color="#fff" stop-opacity=".235"/><stop offset=".821" stop-color="#fff" stop-opacity=".157"/><stop offset="1" stop-color="#fff" stop-opacity=".392"/></linearGradient><linearGradient xlink:href="#a" id="l" gradientUnits="userSpaceOnUse" gradientTransform="translate(-236.033 -50.036) scale(4.16388)" x1="71.204" y1="15.369" x2="71.204" y2="40.496"/><radialGradient xlink:href="#b" id="g" gradientUnits="userSpaceOnUse" gradientTransform="matrix(.68694 0 0 .21462 -4.022 68.573)" cx="99.157" cy="186.171" fx="99.157" fy="186.171" r="62.769"/><linearGradient xlink:href="#c" id="k" gradientUnits="userSpaceOnUse" gradientTransform="matrix(1.75 0 0 1.75 22.5 23.998)" x1="24" y1="22" x2="24" y2="26"/><linearGradient xlink:href="#d" id="j" gradientUnits="userSpaceOnUse" gradientTransform="translate(3.622 5.12) scale(2.5366)" x1="21.014" y1="25.434" x2="22.806" y2="27.344"/><linearGradient xlink:href="#e" id="i" gradientUnits="userSpaceOnUse" gradientTransform="translate(3.622 5.12) scale(2.5366)" x1="27.925" y1="15.149" x2="33.448" y2="22.986"/><radialGradient xlink:href="#f" id="h" gradientUnits="userSpaceOnUse" gradientTransform="scale(6.70538 6.3385) rotate(90 11.068 7)" cx="3.972" cy="8.45" fx="3.972" fy="8.45" r="20"/></defs><path d="M107.212 108.53a43.12 13.47 0 1 1-86.237 0 43.12 13.47 0 1 1 86.237 0z" fill="url(#g)"/><path d="M64.5 13.998c-28.692 0-52 23.308-52 52s23.308 52 52 52 52-23.308 52-52-23.308-52-52-52z" color="#000" fill="url(#h)" overflow="visible"/><path d="M96.656 34a.725.725 0 0 0-.312.156L60.5 62.844a.725.725 0 0 0-.125.125l-28.72 35.87a.725.725 0 0 0 1 1L68.53 71.12a.725.725 0 0 0 .13-.124L97.346 35.15a.725.725 0 0 0-.69-1.154z" opacity=".05" color="#000" overflow="visible"/><path d="M96.785 34.713l-35.86 28.7-28.7 35.86 35.86-28.7 28.7-35.86z" opacity=".15" color="#000" overflow="visible"/><path d="M60.913 62.41l7.174 7.175 28.698-35.872z" fill="url(#i)"/><path d="M60.913 62.41l7.174 7.175-35.872 28.7z" color="#000" fill="url(#j)" overflow="visible"/><path d="M62.77 67.855a2.537 2.537 0 0 1 1.724-4.393l.006 2.536z" opacity=".05" color="#000" fill="#fff" overflow="visible"/><path d="M69 66.998a4.5 4.5 0 0 1-9 0 4.5 4.5 0 1 1 9 0z" opacity=".05" color="#000" overflow="visible"/><path d="M68 66.998a3.5 3.5 0 0 1-7 0 3.5 3.5 0 1 1 7 0z" opacity=".15" color="#000" overflow="visible"/><path d="M68 65.998a3.5 3.5 0 0 1-7 0 3.5 3.5 0 1 1 7 0z" color="#000" fill="url(#k)" overflow="visible"/><path d="M64.5 13.998c-28.692 0-52 23.308-52 52s23.308 52 52 52 52-23.308 52-52-23.308-52-52-52z" opacity=".5" color="#000" stroke="#00537d" stroke-linecap="round" stroke-linejoin="round" overflow="visible" fill="none"/><path d="M115.5 65.998c0 28.167-22.834 51-51 51-28.167 0-51-22.833-51-51 0-28.166 22.833-51 51-51 28.166 0 51 22.834 51 51z" opacity=".5" color="#000" fill="none" stroke="url(#l)" stroke-linecap="round" stroke-linejoin="round" overflow="visible"/></svg>
